X:1
T:Nellie Kelly  I love you
T:Nellie Kelly I love you
T:George M.Cohan
C:George M Cohan
Z:All Rights Reserved
L:1/4
M:3/4
K:Bb
V:1 treble nm="Electric Piano"
%%MIDI program 4
V:1
 z d c |"Bb" B3 |"Gm7" G3 |"Cm7" F2 E |"F7" C3 |"Cm7" F3 |"F7" c3 |"Bb" B3- | B2 F | F F F | %10
w: Its the|same|old|song they|sing|I|love|you|* the|boys are all|
 F E D |"Cm7" F C2- |"F7" C2 F |"C7" G G G | G A B |"F7" A c2- | c d c |"Bb" B3 |"Gm7" G3 | %19
w: mad a- bout|Nel- lie|* the|daught- er of|of- fi- cer|Kel- ly|* and its|all|day|
"Cm7" F2 E |"F7" C3 |"Cm7" F A G |"F7" F G F |"Am7" d3- |"D7" d B c |"Gm" d d d |"F#" c d c | %27
w: long they|bring|flow- ers all|drip- ping with|dew|* and they|join in the|chor- us of|
"Gm" B2 G |"E" B2 G |"Cm7" B3 |"F7" c3 |"Bb" B3- | B z2 |] %33
w: Nel- lie|Kel- ly|I|love|you.||

